processing/LEDWall/data/shapes/burning-man.svg

<?xml version="1.0" encoding="UTF-8" standalone="no"?>
<!-- Generator: Adobe Illustrator 16.0.4, SVG Export Plug-In . SVG Version: 6.00 Build 0)  -->

<svg
   xmlns:dc="http://purl.org/dc/elements/1.1/"
   xmlns:cc="http://creativecommons.org/ns#"
   xmlns:rdf="http://www.w3.org/1999/02/22-rdf-syntax-ns#"
   xmlns:svg="http://www.w3.org/2000/svg"
   xmlns="http://www.w3.org/2000/svg"
   xmlns:sodipodi="http://sodipodi.sourceforge.net/DTD/sodipodi-0.dtd"
   xmlns:inkscape="http://www.inkscape.org/namespaces/inkscape"
   version="1.1"
   id="burning_man"
   x="0px"
   y="0px"
   width="180"
   height="180"
   viewBox="0 0 180 180"
   enable-background="new 0 0 180 180"
   xml:space="preserve"
   inkscape:version="0.48.3.1 r9886"
   sodipodi:docname="burning-man.svg"><metadata
   id="metadata3274"><rdf:RDF><cc:Work
       rdf:about=""><dc:format>image/svg+xml</dc:format><dc:type
         rdf:resource="http://purl.org/dc/dcmitype/StillImage" /></cc:Work></rdf:RDF></metadata><defs
   id="defs3272" /><sodipodi:namedview
   pagecolor="#ffffff"
   bordercolor="#666666"
   borderopacity="1"
   objecttolerance="10"
   gridtolerance="10"
   guidetolerance="10"
   inkscape:pageopacity="0"
   inkscape:pageshadow="2"
   inkscape:window-width="1480"
   inkscape:window-height="1003"
   id="namedview3270"
   showgrid="false"
   inkscape:zoom="4.3444444"
   inkscape:cx="51.445012"
   inkscape:cy="90"
   inkscape:window-x="101"
   inkscape:window-y="62"
   inkscape:window-maximized="0"
   inkscape:current-layer="burning_man" />
<g
   id="g3262">
	<path
   d="m 44.300741,179.275 c -3.718105,-1.372 -5.311943,-4.849 -3.562546,-7.764 l 0,0 c 0,-0.002 0.430973,-0.718 1.227892,-2.107 l 0,0 c 0.793094,-1.394 1.940658,-3.433 3.316459,-5.984 l 0,0 c 2.750326,-5.112 6.427629,-12.288 10.094732,-20.489 l 0,0 c 7.355881,-16.369 14.558754,-36.999 14.507751,-52.729 l 0,0 c 0,-1.681 -0.0765,-3.299 -0.239713,-4.845 l 0,0 C 68.349844,72.2 58.716687,55.684 48.012471,41.702 l 0,0 C 37.351608,27.68 25.808395,16.039 21.284446,11.638 l 0,0 C 19.988974,10.379 19.304261,9.744 19.300436,9.741 l 0,0 C 16.64574,7.282 17.038461,3.6 20.177685,1.521 l 0,0 c 3.139223,-2.082 7.830207,-1.773 10.483628,0.688 l 0,0 c 0.133883,0.127 12.440862,11.539 25.301222,27.376 l 0,0 C 68.775718,45.485 82.379444,65.57 84.471834,84.4 l 0,0 C 84.66692,86.3 84.76,88.237 84.76,90.2 l 0,0 c -0.04973,18.304 -7.775379,39.569 -15.342922,56.59 l 0,0 c -7.595594,16.981 -15.147836,29.57 -15.217965,29.689 l 0,0 c -1.26742,2.114 -3.941243,3.351 -6.733647,3.351 l 0,0 c -1.062134,10e-4 -2.140843,-0.179 -3.164725,-0.555 l 0,0 z"
   id="path3264"
   inkscape:connector-curvature="0"
   style="fill:#010101" />
	<path
   d="m 124.75194,176.479 c -0.0616,-0.12 -7.36121,-12.705 -14.69532,-29.688 l 0,0 C 102.74343,129.769 95.281255,108.503 95.232,90.203 l 0,0 c 0,-1.974 0.09359,-3.91 0.283218,-5.803 l 0,0 C 97.53838,65.569 110.676,45.488 123.05017,29.588 l 0,0 C 135.47359,13.751 147.3552,2.339 147.48449,2.208 l 0,0 0.002,0.003 c 2.56127,-2.461 7.09153,-2.769 10.12443,-0.691 l 0,0 c 3.02673,2.081 3.40846,5.76 0.84719,8.223 l 0,0 c 0,0.002 -0.66618,0.637 -1.9148,1.896 l 0,0 c -1.25232,1.256 -3.05506,3.105 -5.23092,5.431 l 0,0 c -4.3517,4.652 -10.20816,11.215 -16.14219,18.782 l 0,0 c -11.9124,15.082 -23.92454,34.45 -25.33447,49.505 l 0,0 c -0.15639,1.552 -0.23643,3.172 -0.23643,4.846 l 0,0 c -0.032,13.748 5.2654,31.295 11.37552,46.401 l 0,0 c 6.08672,15.133 12.90119,27.929 15.593,32.798 l 0,0 c 0.76715,1.394 1.18212,2.107 1.18828,2.11 l 0,0 c 1.68946,2.916 0.14777,6.389 -3.44418,7.764 l 0,0 c -0.9888,0.377 -2.02685,0.557 -3.05136,0.557 l 0,0 c -2.69796,0 -5.28387,-1.24 -6.50909,-3.354 l 0,0 z"
   id="path3266"
   inkscape:connector-curvature="0"
   style="fill:#010101" />
	<path
   d="M 83.935437,59.114227 65.868315,27.666871 c -1.561683,-2.718904 -1.024602,-6.132435 1.294296,-8.246119 l 0,0 L 85.230885,2.948 c 2.572455,-2.34751903 6.51297,-2.34751903 9.084272,0 l 0,0 18.068273,16.472752 c 2.3189,2.110245 2.85598,5.527215 1.2943,8.246119 l 0,0 -18.067125,31.447356 c -1.192873,2.072419 -3.435703,3.367681 -5.837583,3.367681 l 0,0 c -2.399576,0 -4.645865,-1.295262 -5.837585,-3.367681 l 0,0 z m -3.727295,-33.444123 9.563727,16.648129 9.567184,-16.651567 -9.56488,-8.721813 -9.566031,8.725251 0,0 z"
   id="path3268"
   inkscape:connector-curvature="0"
   style="fill:#010101" />
</g>
</svg>

<?xml version="1.0" encoding="utf-8"?>
<!-- Generator: Adobe Illustrator 17.0.0, SVG Export Plug-In . SVG Version: 6.00 Build 0)  -->
<!DOCTYPE svg PUBLIC "-//W3C//DTD SVG 1.1//EN" "http://www.w3.org/Graphics/SVG/1.1/DTD/svg11.dtd">
<svg version="1.1"
	 id="burning_man" sodipodi:docname="burning-man.svg" inkscape:version="0.48.3.1 r9886" xmlns:sodipodi="http://sodipodi.sourceforge.net/DTD/sodipodi-0.dtd" xmlns:inkscape="http://www.inkscape.org/namespaces/inkscape" xmlns:cc="http://creativecommons.org/ns#" xmlns:svg="http://www.w3.org/2000/svg" xmlns:rdf="http://www.w3.org/1999/02/22-rdf-syntax-ns#" xmlns:dc="http://purl.org/dc/elements/1.1/"
	 xmlns="http://www.w3.org/2000/svg" xmlns:xlink="http://www.w3.org/1999/xlink" x="0px" y="0px" width="180px" height="180px"
	 viewBox="0 0 180 180" enable-background="new 0 0 180 180" xml:space="preserve">
<g id="g3262">
	<path id="path3264" inkscape:connector-curvature="0" fill="#010101" d="M44.301,179.275c-3.718-1.372-5.312-4.849-3.563-7.764l0,0
		c0.409-0.702,0.819-1.405,1.228-2.107c1.128-1.982,2.234-3.977,3.316-5.984c3.608-6.706,6.986-13.538,10.095-20.489
		c7.313-16.273,14.566-34.61,14.508-52.729c0-1.681-0.076-3.299-0.24-4.845c-1.773-16.103-12.046-31.133-21.633-43.655
		c-8.122-10.664-17.12-20.717-26.728-30.064c-0.661-0.632-1.323-1.265-1.984-1.897l0,0c-2.655-2.459-2.262-6.141,0.877-8.22l0,0
		c3.075-2.04,7.731-1.865,10.484,0.688c9.015,8.552,17.469,17.731,25.301,27.376C68.575,45.236,82.184,63.807,84.472,84.4
		c0.195,1.9,0.288,3.837,0.288,5.8c-0.135,19.614-7.48,38.904-15.343,56.59c-4.542,10.144-9.573,20.11-15.218,29.689
		c-1.659,2.264-3.904,3.381-6.734,3.351C46.427,179.46,45.372,179.275,44.301,179.275z"/>
	<path id="path3266" inkscape:connector-curvature="0" fill="#010101" d="M124.752,176.479c-0.062-0.12-7.361-12.705-14.695-29.688
		c-7.62-17.704-14.772-37.063-14.825-56.588l0,0c0-1.974,0.094-3.91,0.283-5.803l0,0c2.198-20.458,15.251-39.028,27.535-54.812
		c7.572-9.653,15.825-18.657,24.434-27.38c2.925-2.286,6.904-2.896,10.126-0.688c3.027,2.081,3.408,5.76,0.847,8.223
		c-0.638,0.632-1.277,1.264-1.915,1.896c-1.772,1.783-3.516,3.593-5.231,5.431c-5.64,6.03-11.047,12.285-16.142,18.782
		c-10.979,13.891-23.628,31.285-25.334,49.505l0,0c-0.156,1.552-0.236,3.172-0.236,4.846l0,0
		c-0.037,15.873,5.495,31.862,11.376,46.401c4.515,11.226,9.738,22.207,15.593,32.798c2.085,3.789,2.814,7.933-2.256,9.874
		c-1.017,0.186-2.034,0.371-3.051,0.557C128.496,179.846,126.326,178.728,124.752,176.479L124.752,176.479L124.752,176.479z"/>
	<path id="path3268" inkscape:connector-curvature="0" fill="#010101" d="M83.935,59.114L65.868,27.667
		c-1.562-2.719-1.025-6.132,1.294-8.246l0,0L85.231,2.948c2.572-2.348,6.513-2.348,9.084,0l0,0l18.068,16.473
		c2.319,2.11,2.856,5.527,1.294,8.246l0,0L95.611,59.114c-1.193,2.072-3.436,3.368-5.838,3.368l0,0
		C87.373,62.482,85.127,61.187,83.935,59.114L83.935,59.114z M80.208,25.67l9.564,16.648l9.567-16.652l-9.565-8.722L80.208,25.67
		L80.208,25.67z"/>
</g>
</svg>
